COLOR/action 16/16/media-eject.svg

<svg height="16" width="16" xmlns="http://www.w3.org/2000/svg"><path d="m7.9140626 1.5351561-6.4140626 7.9960938h12.994141zm-6.3847657 11.0312499v2.933594h12.9335941v-2.933594z" display="block" fill="#3b3b3b"/><path d="m7.9140625 1.5351562-6.4140625 7.9960938h.4003906l6.0136719-7.4960938 6.1679685 7.4960938h.41211zm-6.3847656 11.0312498v.5h12.9335941v-.5z" display="block" fill="#fff" opacity=".3"/><path d="m1.9003906 9.03125-.4003906.5h12.994141l-.41211-.5zm-.3710937 5.96875v.5h12.9335941v-.5z" display="block" opacity=".2"/></svg>

<?xml version="1.0" encoding="UTF-8" standalone="no"?>
<!-- Created with Inkscape (http://www.inkscape.org/) -->

<svg
   xmlns:dc="http://purl.org/dc/elements/1.1/"
   xmlns:cc="http://creativecommons.org/ns#"
   xmlns:rdf="http://www.w3.org/1999/02/22-rdf-syntax-ns#"
   xmlns:svg="http://www.w3.org/2000/svg"
   xmlns="http://www.w3.org/2000/svg"
   xmlns:sodipodi="http://sodipodi.sourceforge.net/DTD/sodipodi-0.dtd"
   xmlns:inkscape="http://www.inkscape.org/namespaces/inkscape"
   id="svg2415"
   width="16"
   height="16"
   version="1.1"
   sodipodi:docname="media-eject.svg"
   inkscape:version="0.92.4 (5da689c313, 2019-01-14)">
  <metadata
     id="metadata16">
    <rdf:RDF>
      <cc:Work
         rdf:about="">
        <dc:format>image/svg+xml</dc:format>
        <dc:type
           rdf:resource="http://purl.org/dc/dcmitype/StillImage" />
      </cc:Work>
    </rdf:RDF>
  </metadata>
  <sodipodi:namedview
     pagecolor="#ffffff"
     bordercolor="#666666"
     borderopacity="1"
     objecttolerance="10"
     gridtolerance="10"
     guidetolerance="10"
     inkscape:pageopacity="0"
     inkscape:pageshadow="2"
     inkscape:window-width="1920"
     inkscape:window-height="1016"
     id="namedview14"
     showgrid="false"
     inkscape:zoom="14.75"
     inkscape:cx="8"
     inkscape:cy="8"
     inkscape:window-x="0"
     inkscape:window-y="27"
     inkscape:window-maximized="1"
     inkscape:current-layer="svg2415" />
  <defs
     id="defs2417">
    <linearGradient
       id="linearGradient2398"
       x1="24.062"
       x2="24.062"
       y1="6.2406"
       y2="28.791"
       gradientTransform="matrix(.44237 0 0 .39911 -2.6446 -1.4907)"
       gradientUnits="userSpaceOnUse">
      <stop
         id="stop2403"
         style="stop-color:#9b9b9b"
         offset="0" />
      <stop
         id="stop2405"
         style="stop-color:#656565"
         offset="1" />
    </linearGradient>
    <linearGradient
       id="linearGradient3189"
       x1="7.8426"
       x2="7.8426"
       y1="2.5941"
       y2="9.0404"
       gradientUnits="userSpaceOnUse">
      <stop
         id="stop3185"
         style="stop-color:#fff"
         offset="0" />
      <stop
         id="stop3187"
         style="stop-color:#fff;stop-opacity:0"
         offset="1" />
    </linearGradient>
  </defs>
  <path
     style="display:block;fill:#3b3b3b;fill-opacity:1;stroke:none;stroke-width:1.0654;stroke-linejoin:round"
     d="M 7.9140626,1.5351561 1.5,9.5312499 H 14.494141 Z M 1.5292969,12.566406 V 15.5 H 14.462891 v -2.933594 z"
     id="rect4595"
     inkscape:connector-curvature="0" />
  <path
     style="display:block;fill:#ffffff;fill-opacity:1;stroke:none;stroke-width:1.0654;stroke-linejoin:round;opacity:0.3"
     d="M 7.9140625 1.5351562 L 1.5 9.53125 L 1.9003906 9.53125 L 7.9140625 2.0351562 L 14.082031 9.53125 L 14.494141 9.53125 L 7.9140625 1.5351562 z M 1.5292969 12.566406 L 1.5292969 13.066406 L 14.462891 13.066406 L 14.462891 12.566406 L 1.5292969 12.566406 z "
     id="path834" />
  <path
     style="display:block;fill:#000000;fill-opacity:1;stroke:none;stroke-width:1.0654;stroke-linejoin:round;opacity:0.2"
     d="M 1.9003906 9.03125 L 1.5 9.53125 L 14.494141 9.53125 L 14.082031 9.03125 L 1.9003906 9.03125 z M 1.5292969 15 L 1.5292969 15.5 L 14.462891 15.5 L 14.462891 15 L 1.5292969 15 z "
     id="path840" />
</svg>
